X: 9
T: Fama malum
N: Derived from Ano3001-Fama_malum--Brussels_228.krn
C: Anonymous
%%abc-version 2.0
%%abcx-abcm2ps-target-version 5.9.1 (29 Sep 2008)
%%abc-creator hum2abc beta
%%abcx-conversion-date 2019/02/16 20:18:26
%%abc-edited-by Jesse Rodin
%%abc-edited-by Jesse Rodin 8/13/2013
%%abcx-initial-encoding-date 2013/08/13/
%%humdrum-veritas 2055604129
%%humdrum-veritas-data 444235612
%%linebreak <none>
%%barnumbers 0
L: 1/4
M: 2/1
Q: 1/2=120
%%staves [1 2 3 4]
V: 1 clef=treble
V: 2 clef=treble-8
V: 3 clef=treble-8
V: 4 clef=bass
K: C
[V:1] c8 | 
[V:2] z8 | 
[V:3] z8 | 
[V:4] z8 | 
[V:1] A4B4 | 
[V:2] z8 | 
[V:3] z8 | 
[V:4] z8 | 
[V:1] E4A4- | 
[V:2] z8 | 
[V:3] c8 | 
[V:4] z8 | 
[V:1] A4^G4 | 
[V:2] z8 | 
[V:3] A4B4 | 
[V:4] z8 | 
[V:1] ^G8 | 
[V:2] e8 | 
[V:3] E8 | 
[V:4] z8 | 
[V:1] A6B2 | 
[V:2] c4d4 | 
[V:3] F6G2 | 
[V:4] z8 | 
[V:1] c4A4 | 
[V:2] A8- | 
[V:3] A3Bc4 | 
[V:4] F,8 | 
[V:1] A4G4 | 
[V:2] A4e4- | 
[V:3] d4B4 | 
[V:4] D,4E,4 | 
[V:1] z2A4GF | 
[V:2] e2dcc3d | 
[V:3] A2GFE4 | 
[V:4] A,,8- | 
[V:1] E2F2E4 | 
[V:2] e2d4c2- | 
[V:3] A8 | 
[V:4] A,,8 | 
[V:1] z4c4 | 
[V:2] c2e4dc | 
[V:3] z8 | 
[V:4] A,8 | 
[V:1] B2d4c2- | 
[V:2] d2e2f2g2 | 
[V:3] z8 | 
[V:4] G,4F,2E,2 | 
[V:1] c2BAc2BA | 
[V:2] f2e4d2 | 
[V:3] A4A4 | 
[V:4] F,8 | 
[V:1] G4c4- | 
[V:2] e8 | 
[V:3] B2c3BAG | 
[V:4] E,8 | 
[V:1] c4B3c | 
[V:2] c4z4 | 
[V:3] A4G4 | 
[V:4] F,4G,2E,2 | 
[V:1] d2c4BA | 
[V:2] A4z2AB | 
[V:3] DEFGABcd | 
[V:4] F,8 | 
[V:1] G2A4^G2 | 
[V:2] cde4e2 | 
[V:3] e2c2B4 | 
[V:4] E,8 | 
[V:1] A8 | 
[V:2] c2f4F2- | 
[V:3] A4d4 | 
[V:4] z8 | 
[V:1] z4d4 | 
[V:2] F2F2G4 | 
[V:3] c2A2B4 | 
[V:4] z8 | 
[V:1] c2B2A4 | 
[V:2] A2G2c2d2 | 
[V:3] A2E2F4 | 
[V:4] z8 | 
[V:1] G2F2E4 | 
[V:2] e2d4c2 | 
[V:3] E2F2G2A2 | 
[V:4] z8 | 
[V:1] z8 | 
[V:2] dcBAG3A | 
[V:3] D2d4c2 | 
[V:4] z4E,4 | 
[V:1] z8 | 
[V:2] B2c2d3B | 
[V:3] B2A4G2 | 
[V:4] D,2C,2B,,4 | 
[V:1] z8 | 
[V:2] cAd4^c2 | 
[V:3] F2G2E4 | 
[V:4] A,,2G,,2A,,4 | 
[V:1] F8- | 
[V:2] d4z4 | 
[V:3] D8 | 
[V:4] z8 | 
[V:1] F4G4 | 
[V:2] d8 | 
[V:3] _B8 | 
[V:4] z8 | 
[V:1] G2A4GF | 
[V:2] e4d4 | 
[V:3] c4A4 | 
[V:4] z4D,4- | 
[V:1] F4G3A | 
[V:2] z6B2 | 
[V:3] d4G4 | 
[V:4] D,4E,4- | 
[V:1] B2c4BA | 
[V:2] e4c4 | 
[V:3] z8 | 
[V:4] E,2C,2F,4- | 
[V:1] A2d4cB | 
[V:2] f4z4 | 
[V:3] D6E2 | 
[V:4] F,4G,4 | 
[V:1] A2G4^F2 | 
[V:2] c4d4 | 
[V:3] F2G2A4 | 
[V:4] F,2E,2D,4 | 
[V:1] G4z4 | 
[V:2] B6AG | 
[V:3] G4z4 | 
[V:4] G,,8 | 
[V:1] E4E2D2 | 
[V:2] c4B4 | 
[V:3] A4G2G2 | 
[V:4] z8 | 
[V:1] C4C4 | 
[V:2] A8 | 
[V:3] E4E4 | 
[V:4] A,,4A,,2A,,2 | 
[V:1] D4z4 | 
[V:2] F3Dd4- | 
[V:3] D8 | 
[V:4] _B,,4B,,4 | 
[V:1] A4c4- | 
[V:2] d2c2c2e2- | 
[V:3] E8 | 
[V:4] A,,8 | 
[V:1] c4B4 | 
[V:2] e2e2g4 | 
[V:3] z8 | 
[V:4] E,8 | 
[V:1] A4c4- | 
[V:2] f8 | 
[V:3] c8 | 
[V:4] F,8 | 
[V:1] c2BAG3A | 
[V:2] g4e4 | 
[V:3] e6c2 | 
[V:4] C,8 | 
[V:1] B2A4G2 | 
[V:2] f4e2d2 | 
[V:3] d4c2B2 | 
[V:4] z8 | 
[V:1] F2G4E2 | 
[V:2] c2d2B4 | 
[V:3] A2B2E4 | 
[V:4] z4G,4 | 
[V:1] D2E4D2 | 
[V:2] A2B3AAG | 
[V:3] z8 | 
[V:4] F,2E,2F,4 | 
[V:1] E4z4 | 
[V:2] B6G2- | 
[V:3] z2EFGAB2- | 
[V:4] E,6D,C, | 
[V:1] D6E2 | 
[V:2] G2B2B2AB | 
[V:3] BAGFG4 | 
[V:4] B,,8 | 
[V:1] F2E2A4- | 
[V:2] c2def2e2 | 
[V:3] A4A3G | 
[V:4] z8 | 
[V:1] A2G2c2BA | 
[V:2] d2e4d2 | 
[V:3] F2E2F4 | 
[V:4] z8 | 
[V:1] G4z4 | 
[V:2] e4d2g2- | 
[V:3] E4B4- | 
[V:4] z8 | 
[V:1] d4c2A2 | 
[V:2] gfede2d2 | 
[V:3] B4A4 | 
[V:4] B,,4C,2D,2 | 
[V:1] G2B4A2- | 
[V:2] GABcd4 | 
[V:3] z2G2A4 | 
[V:4] E,4D,2F,2 | 
[V:1] A2^G2A4 | 
[V:2] e4z2c2- | 
[V:3] B4A4 | 
[V:4] E,4z4 | 
[V:1] E4z4 | 
[V:2] cdefg2G2 | 
[V:3] c4d2e2- | 
[V:4] A,4G,2E,2 | 
[V:1] z8 | 
[V:2] A4z2c2- | 
[V:3] e2dcd2A2 | 
[V:4] F,8 | 
[V:1] G3AB2c2 | 
[V:2] cde4e2- | 
[V:3] c2B2z4 | 
[V:4] E,8 | 
[V:1] A4z4 | 
[V:2] e2d2e2f2 | 
[V:3] z8 | 
[V:4] F,4E,2D,2 | 
[V:1] G4G4 | 
[V:2] e8 | 
[V:3] B8 | 
[V:4] E,8 | 
[V:1] A2GFE4 | 
[V:2] z8 | 
[V:3] A4c4- | 
[V:4] A,,8 | 
[V:1] z6A2 | 
[V:2] z8 | 
[V:3] c4d4 | 
[V:4] A,4G,2F,2 | 
[V:1] d4B4 | 
[V:2] d4g4- | 
[V:3] B4E3F | 
[V:4] G,8 | 
[V:1] z2c4A2- | 
[V:2] g2e2e4 | 
[V:3] G3AB2c2 | 
[V:4] C,8 | 
[V:1] A2G2G2A2 | 
[V:2] z6c2 | 
[V:3] F2E2G2F2 | 
[V:4] C4B,2A,2 | 
[V:1] G2d3cBA | 
[V:2] e2d2G2g2- | 
[V:3] EFGABcd2 | 
[V:4] B,8 | 
[V:1] G2A4^G2 | 
[V:2] g2e2e4 | 
[V:3] e2c2B4 | 
[V:4] E,8 | 
[V:1] A8- | 
[V:2] c2d4e2 | 
[V:3] A8- | 
[V:4] F,4D,2C,2 | 
[V:1] A8- | 
[V:2] f4d4 | 
[V:3] A8- | 
[V:4] D,8 | 
[V:1] A8 |]  
[V:2] e8 |]  
[V:3] A8 |]  
[V:4] A,,8 |]  



